!!!COM: Johannes Brahms
!!!CNT: Deutscher
!!!TXO: Deutsche
!!!OTL: In meiner Na2chte Sehnen
!!!OPS: Op. 57
!!!ONM: No. 5
!!!LYR: Daumer
!!!ONB: Original key: e minor
!!!ENC: Ayako Kataoka        
!!!EED: Leigh VanHandel
!!!YOR: C.F. Peters, Brahms Lieder fu2r eine Singstimme mit Klavierbegleitung, Band III, ausgabe fu2r tiefere Stimme
!!!ODT: 1871/
!!NB: Vocal melody and text only encoded.
**kern	**silbe
*clefG2	*
*k[f#c#g#d#]	*
*M6/8	*
*MM[con moto]	*
!! tempo indication: agitato
=4	=4
4r	.
8r	.
4r	.
{8g#	{In
=5	=5
4e	mei-
8f#	-ner
4g#	Na2ch-
8b	-te
=6	=6
4.cc#	Seh-
4b#}	-nen,}
{8dd#	{so
=7	=7
4.cc#	tief
4.bn	al-
=8	=8
(4.a	-lein
4g#)}	|}
{8g#	{mit
=9	=9
4e	tau-
8f#	-send,
4g#	tau-
8b	-send
=10	=10
4.cc#	Tra2-
4b	-nen,
8ee	ge-
=11	=11
4.dd#	-denk
4.b	ich
=12	=12
(4.a#	dein,
4g#)	|
8cc#	ge-
=13	=13
([4.b	denk,
8b]	|
8g#)	|
8a#	ge-
=14	=14
([4.b	-denk
8b]	|
8g#)	|
8a#	ich
=15	=15
4g#}	dein.}
8r	.
4r	.
8r	.
=16	=16
4r	.
8r	.
4r	.
{8e	{Ach,
=17	=17
4d	wer
8e	dein
4f#	Ant-
8g#	-litz
=18	=18
4.a	schau-
4f#	-te,
8e#	wem
=19	=19
4.d	dein
4.e#	Ge-
=20	=20
([4.f#	-mu2t
8f#]	|
8a#)}	|}
{8g#	{die
=21	=21
4e#	scho2-
8f#	-ne
4g#	Glut
8a#	ver-
=22	=22
4.b	-trau-
4g#}	-te,}
8r	.
=23	=23
4r	.
{8f#	{die
(8e#	es
8g#)	|
8b	durch
=24	=24
(4.ddn	-glu2ht,
8cc#)}	|}
8r	.
{8cc#	{wem
=25	=25
4an	dei-
8b	-ne
(8cc#	Ku2s-
8a)	|
8b	-se
=26	=26
(4cc#	brann-
8a)	|
4cc#}	ten,}
{8cc#	{wem
=27	=27
4dd#	je
8b#	vor
4cc#	Lust
8cc#	all
=28	=28
4a	sei-
8b	-ne
(8cc#	Sin-
8a)	|
8b	-ne
=29	=29
(4cc#	schwan-
8a)	|
4cc#	-den
8cc#	an
=30	=30
4ee	dei-
8cc#	-ner
4b#}	Brust,}
8r	.
=31	=31
{8dd#	{all
8bn	sei-
8cc#	-ne
(8dd#	Sin-
8b)	|
8cc#	-ne
=32	=32
(4dd#	schwan-
8b)	|
4dd#	-den
8dd#	an
=33	=33
(4cc##	dei
8b)	|
4a#}	-ner,}
{8g#	{an
=34	=34
(4cc#	dei-
8a#)	|
(4g#	-ner
8f##)	|
=35	=35
4g#}	Brust}
8r	.
4r	.
8r	.
=36	=36
4r	.
8r	.
4r	.
{8g#	{wie
=37	=37
4e	ra-
8f#	-ste
4g#	-ten
8b	in
=38	=38
4.cc#	Frie--
4b#	-den
8dd#	ihm
=39	=39
4.cc#	Seel
4.bn	und
=40	=40
(4.a	Leib,
4g#)}	|}
{8g#	{wenn
=41	=41
4e	er
8f#	von
4g#	dir
8b	ge-
=42	=42
(4cc#	-schie-
8ccn)	|
4b	-den,
8b	du
=43	=43
4.ee	go2tt-
4.cc#	-lich,
=44	=44
4b}	Weib,}
8r	.
4r	.
{8dd#	{du
=45	=45
([4.cc#	go2tt-
8cc#]	|
8a#)	|
8b#	-lich,
=46	=46
[4.ee	go2tt-
4ee]	|
8dd#	-lich
=47	=47
4cc#}	Weib!}
8r	.
4r	.
8r	.
*-	*-
